X:1
T:Fishers of men
T:Fishers of Men(人間をとる漁師)
T:Music&Word：Harry D.Clarke（1888-1957）
T:Arranged & Translated by K Kobayashi
T:©K Kobayashi 2019
T:©K Kobayashi 2019
C:Harry D.Clarke
Z:Harry D.Clarke
Z:©K Kobayashi 2019
%%score 1 { 2 | 3 }
L:1/8
Q:1/4=114
M:4/4
K:D
V:1 treble nm="オーボエ"
V:2 treble nm="ピアノ"
V:3 bass 
V:1
"^\n""^vividly" z8 | z8 | z8 | z8 |:!mp! D2 D2 D2 E2 | F F2 ^E F4 | E E2 ^D E4 | D D2 B, A,4 | %8
w: ||||1.わ
 た し に|し た が い|つ ー い て|来 る な ら|
w: ||||2.キ リ ス ト|の こ え を|聞 いた な ら|し た が え|
 D2 D2 D2 E2 | F F2 ^E F2 G=E | D4 C4 | D6!mf! FG | A4 ^G4 | A6 FA | d4 B4 | A6!mp! z2 | %16
w: あ な た を|りょ う 師 に し て|あ げ|よう に ん|げ ん|を と る|漁 師|に|
w: あ な た に|あ んそ く を あ た|え よ|う と こ|し え|の あ ん|そ く|を|
 D2 D2 D2 E2 | FF-F^E F2 G=E | D4 C4 |1 D6 z2 :|2 D6 z2 |:[K:E]!mp! E2 E2 E2 F2 | G G2 ^^F G4 | %23
w: あ な た を|りょ う ー
そ
 師 に し て|あ げ|よう||1.わ
 た し に|し た が い|
w: あ な た に|あ ん * く を あ た|え よ||う|2.キ リ ス ト|の こ え を|
 F F2 ^E F4 | E E2 C B,4 | E2 E2 E2 F2 | G G2 ^^F G2 A^F | E4 D4 | E6 GA | B4 ^A4 | B6 GB | e4 c4 | %32
w: つ ー い て|来 る な ら|あ な た を|りょ う 師 に し て|あ げ|よう に ん|げ ん|を と る|漁 師|
w: 聞 いた な ら|し た が え|あ な た に|あ んそ く を あ た|え よ|う と こ|し え|の あ ん|そ く|
 B6 z2 |!mp! E2 E2 E2 F2 | GG-G^^F G2 A^F | E4 D4 |1 E6 z2 :|2 E6 z2 || z8 | z8 | z8 | z8 |] %42
w: に|あ な た を|りょ う ー
そ
 師 に し て|あ げ|よう||||||
w: を|あ な た に|あ ん * く を あ た|え よ||う|||||
V:2
!p! [F,A,D]2 [F,A,D]2 [F,A,D]2 [G,B,E]2 | [A,CF] [A,CF]2 [^^C^E] [A,DF]2 [^CG][G,A,=E] | %2
 [F,A,D]4 [E,G,C]4 | [F,D]6 z2 |:!mp! [F,A,D]2 [F,A,D]2 [F,A,D]2 [G,B,E]2 | %5
 [A,CF] [A,CF]2 [^^C^E] [A,^CF]4 | [G,B,E] [G,B,E]2 [^B,^D] [A,CE]4 | %7
 [F,A,D] [F,A,D]2 [D,=F,B,] [D,^F,A,]4 | [F,A,D]2 [F,A,D]2 [F,A,D]2 [G,B,E]2 | %9
 [A,CF] [A,CF]2 [^^C^E] [A,^CF]2 G=E | [E,G,B,D]4 [E,G,A,C]4 |!<(! [F,D]A,B,C DE!<)!!mf![DF][EG] | %12
 [A,FA]4 [^G,^E^G]4 | [FA]6 [DF][FA] | [DBd]4 [B,GB]4 | [CA]2 [B,G]2 [A,F]2 [G,E]2 | %16
!mp! [F,A,D]2 [F,A,D]2 [F,A,D]2 [G,B,E]2 | [A,CF] [A,CF]2 [^^C^E] [A,^CF]2 G=E | %18
 [E,G,B,D]4 [E,G,A,C]4 |1 [F,A,D]2 [F,F]2 [B,DG]2 z2 :|2 [F,D]6 !fermata![B,^DFA]2 |: %21
[K:E]!mp! [G,B,E]2 [G,B,E]2 [G,B,E]2 [A,CF]2 | [B,DG] [B,DG]2 [^^D^^F] [B,^DG]4 | %23
 [A,CF] [A,CF]2 [^^C^E] [B,DF]4 | [G,B,E] [G,B,E]2 [E,=G,C] [E,^G,B,]4 | %25
 [G,B,E]2 [G,B,E]2 [G,B,E]2 [A,CF]2 | [B,DG] [B,DG]2 [^^D^^F] [B,^DG]2 A^F | [F,A,CE]4 [F,A,B,D]4 | %28
!<(! [G,E]B,CD EF!<)!!mf![EG][FA] | [B,GB]4 [^A,^^F^A]4 | [GB]6 [EG][GB] | [Ece]4 [CAc]4 | %32
 [DB]2 [CA]2 [B,G]2 [A,F]2 |!mp! [G,B,E]2 [G,B,E]2 [G,B,E]2 [A,CF]2 | %34
 [B,DG] [B,DG]2 [^^D^^F] [B,^DG]2 A^F | [F,A,CE]4 [F,A,B,D]4 |1 [G,B,E]2 [G,G]2 [CEA]2 z2 :|2 %37
 [G,B,E]2 [EGB]2 [Ac]2 [Cc]2 || [A,CF]2 [FAc]2 [Bd]2 [Bdf]2 | [B,DG]2 [GBd]2 [Gce]2 [ceg]2 | %40
 [cfa]4 [DFAB]4 | [GBe]6 z2 |] %42
V:3
 [D,,D,]4 [C,,C,]2 [B,,,B,,]2 | [A,,,A,,] [A,,,A,,]2 [^G,,,^G,,] [F,,,F,,]2 [E,,,E,,]2 | %2
 [A,,,A,,]4 [A,,,,A,,,]4 | [D,,D,]2 [A,,,A,,]2 [D,,,A,,,D,,]4 |: D,,2 D,2 C,2 B,,2 | %5
 A,, A,,2 ^G,, F,,2 E,,2 | G,, G,,2 A,, A,,2 G,,2 | F,, F,,2 ^G,, A,,2 D,,2 | D,,2 D,2 C,2 B,,2 | %9
 A,, A,,2 ^G,, F,,2 E,,B,, | E,,G,,B,,D, G,E,C,A,, | D,2 A,,2 D,,2 z2 | D,,F,,A,,D, D,,=F,,B,,D, | %13
 F,2 A,2 D,2 z2 | G,,B,,D,G, E,,G,,B,,D, | E,2 D,2 C,2 B,,2 | D,,2 D,2 C,2 B,,2 | %17
 A,, A,,2 ^G,, F,,2 E,,B,, | E,,G,,B,,D, G,E,C,A,, |1 [D,,A,,]2 [F,,A,,D,]2 [B,,D,E,]2 A,,,2 :|2 %20
 D,2 A,,2 D,,2 !fermata![B,,,B,,]2 |:[K:E] E,,2 E,2 D,2 C,2 | B,, B,,2 ^A,, G,,2 F,,2 | %23
 A,, A,,2 B,, B,,2 A,,2 | G,, G,,2 ^A,, B,,2 E,,2 | E,,2 E,2 D,2 C,2 | B,, B,,2 ^A,, G,,2 F,,C, | %27
 F,,A,,C,E, A,F,D,B,, | E,2 B,,2 E,,2 z2 | E,,G,,B,,E, E,,=G,,C,E, | G,2 B,2 E,2 z2 | %31
 A,,C,E,A, F,,A,,C,E, | F,2 E,2 D,2 C,2 | E,,2 E,2 D,2 C,2 | B,, B,,2 ^A,, G,,2 F,,C, | %35
 F,,A,,C,E, A,F,D,B,, |1 [E,,B,,]2 [G,,B,,E,]2 [C,E,F,]2 B,,,2 :|2 %37
 [E,,B,,]2 [E,,G,,C,]2 [A,CEF]2 z2 || [F,,F,]4 [B,,,B,,]4 | [G,,G,]4 [C,,C,]4 | %40
 B,,,F,,B,,D, F,D,B,,B,,, | [E,,,E,,]6 z2 |] %42

